!!!!SEGMENT: pl-wnifc--6730-n--014_sowinski-wojciech--chants-religieux-de-la-pologne-op-93-la-grandeur-dieu-tout-puissant.krn
!!!cenid: 18xx:4028
!!!COM: Sowiński, Wojciech
!!!COM-rismID: pe30008543
!!!CDT: ~1803-1880/03/05
!!!CNT:
!!!GTL: Chants religieux de la Pologne op. 93
!!!OTL: La grandeur/Dieu tout puissant
!!!OMV: 014
!!!PDT: 1830
!!!AGN:
!!!SMS-siglum: PL-Wnifc
!!!SMS-shelfmark: 6730/n
!!!SMS-shelfwork: 001-014 G
!!!SMS-variant:
!!!SMS-altvar:
!!!NIFC-rismSourceID: 1001138221
!!!NIFC-rismChildID: 1001138236
!!!NIFC-islandoraID: nifc:213350
!!!URL-pdf-islandora: https://repozytorium.nifc.pl/islandora/object/nifc%3A213350/datastream/PDF/view
!!!URL-scan: https://polish.musicsources.pl/pl/lokalizacje/galeria/druki-muzyczne/16913 @EN{Scan on Polish Music Sources Website} @PL{Skany w portalu Dziedzictwo Muzyki Polskiej w otwartym dostępie}
!!!IIIF:
!!!ONB-nifc: UWAGA: str. 52-55
!!!AIN: 1 calto 2 organ 2 vox
!!!key: D
**kern	**kern	**dynam	**kern	**text	**dynam	**kern	**text	**dynam	**kern	**text	**dynam
*part5	*part4	*part4	*part3	*part3	*part3	*part2	*part2	*part2	*part1	*part1	*part1
*staff5	*staff4	*	*staff3	*staff3	*	*staff2	*staff2	*	*staff1	*staff1	*
*I"ORGUE.	*I"ORGUE.	*	*I"CONTRALTO.	*	*	*I"2o. DESSUS.	*	*	*I"1er. DESSUS.	*	*
*I'org	*I'org	*	*I'CA	*	*	*I'D 2	*	*	*I'D 1	*	*
*ICklav	*ICklav	*	*ICvox	*	*	*ICvox	*	*	*ICvox	*	*
*Iorgan	*Iorgan	*	*Icalto	*	*	*Ivox	*	*	*Ivox	*	*
*clefF4	*clefG2	*	*clefG2	*	*	*clefG2	*	*	*clefG2	*	*
*k[f#c#]	*k[f#c#]	*	*k[f#c#]	*	*	*k[f#c#]	*	*	*k[f#c#]	*	*
*D:	*D:	*	*D:	*	*	*D:	*	*	*D:	*	*
*M4/4	*M4/4	*	*M4/4	*	*	*M4/4	*	*	*M4/4	*	*
*met(c)	*met(c)	*	*met(c)	*	*	*met(c)	*	*	*met(c)	*	*
=1	=1	=1	=1	=1	=1	=1	=1	=1	=1	=1	=1
!	!LO:TX:a:B:t=Allo. con brio.	!	!	!	!	!	!	!	!LO:TX:a:B:t=Allo con brio.	!	!
2D\ 2A	(2f#/ 2a	p <	1r	.	.	1r	.	.	1r	.	.
4D\ 4G	4g/ 4b	.	.	.	.	.	.	.	.	.	.
4D\ 4E 4A	4g/ 4cc#	.	.	.	.	.	.	.	.	.	.
=2	=2	=2	=2	=2	=2	=2	=2	=2	=2	=2	=2
2D\ 2A	2f#/) 2dd	.	1r	.	.	1r	.	.	1r	.	.
2D\ 2A	2f#/ 2dd	[ > ]]	.	.	.	.	.	.	.	.	.
=3	=3	=3	=3	=3	=3	=3	=3	=3	=3	=3	=3
(4G'\ 4A	(4e'/ 4cc#	.	1r	.	.	1r	.	.	1r	.	.
4F#'\ 4A	4f#'/ 4dd	.	.	.	.	.	.	.	.	.	.
4E'\ 4A	4g'/ 4ee	.	.	.	.	.	.	.	.	.	.
4D'\) 4A	4a'/) 4ff#	.	.	.	.	.	.	.	.	.	.
=4	=4	=4	=4	=4	=4	=4	=4	=4	=4	=4	=4
*	*^	*	*	*	*	*	*	*	*	*	*
2AA\ 2A	(2cc#/ 2ee	4a\	>	1r	.	.	1r	.	.	1r	.	.
.	.	4g\	.	.	.	.	.	.	.	.	.	.
4D\	4dd/)	4f#\	.	.	.	.	.	.	.	.	.	.
4r	4r	4ryy	]	.	.	.	.	.	.	.	.	.
*	*v	*v	*	*	*	*	*	*	*	*	*	*
=5	=5	=5	=5	=5	=5	=5	=5	=5	=5	=5	=5
!	!	!	!	!	!LO:HP:a	!	!	!LO:HP:a	!	!	!LO:HP:a
!	!	!	!	!	!LO:DY:a	!	!	!LO:DY:a	!	!	!LO:DY:a
2D\ 2A	2f#/ 2a	p <	2d/	Dieu	p <	2f#/	DIeu	p <	2a/	Dieu	p <
4D\ 4G	4g/ 4b	.	4d/	tout	.	4g/	tout	.	4b/	tout	.
4D\ 4E 4A	4g/ 4cc#	[[	4d/	puis-	[[	4e/	puis-	[[	4cc#/	puis-	[[
!!LO:LB:g=original	!	!	!	!	!	!	!	!	!	!	!
=6	=6	=6	=6	=6	=6	=6	=6	=6	=6	=6	=6
2D\ 2A	2f#/ 2dd	.	2d/	-sant	.	2f#/	-sant	.	2dd\	-sant	.
2D\ 2A	2f#/ 2dd	.	2d/	qui	.	2f#/	qui	.	2dd\	qui	.
=7	=7	=7	=7	=7	=7	=7	=7	=7	=7	=7	=7
!	!	!	!	!	!	!	!	!	!	!	!
4G\ 4A	4e\ 4cc#	.	4e/	m'a	.	4g/	m'a	.	4cc#\	m'a	.
!	!	!LO:HP:b:t=cres.	!	!	!	!	!	!	!	!	!
4F#\ 4A	4f#\ 4dd	<	4d/	don-	.	4f#/	don-	.	4dd\	don-	.
4E\ 4A	4g\ 4ee	.	4c#/	-nè	.	4a/	-nè	.	4ee\	-nè	.
4D\ 4A	4a\ 4ff#	.	4d/	la	.	4a/	la	.	4ff#\	la	.
=8	=8	=8	=8	=8	=8	=8	=8	=8	=8	=8	=8
*^	*^	*	*	*	*	*	*	*	*	*	*
!	!	!	!	!	!	!	!LO:HP:a	!	!	!LO:HP:a	!	!	!LO:HP:a
2A\	2C#\	2ee/	4a\	.	2A/	vi-	>	4a/	vi-	>	2ee\	vi-	>
.	.	.	4g\	.	.	.	.	4g/	.	.	.	.	.
4A/	2D\	2dd/	2f#\	.	2d/	-e	]	2f#/	-e	]	2dd\	-e	]
4F#/	.	.	.	.	.	.	.	.	.	.	.	.	.
*v	*v	*	*	*	*	*	*	*	*	*	*	*	*
*	*v	*v	*	*	*	*	*	*	*	*	*	*
=9	=9	=9	=9	=9	=9	=9	=9	=9	=9	=9	=9
2D\ 2d	2a\ 2ff#	f	2d^/	quand	.	2a^/	quand	.	2ff#^\	quand	.
4C#\ 4c#	4a\ 4ee	.	4c#/	je	.	4a/	je	.	4ee\	je	.
4C#\ 4c#	4a\ 4ee	.	4c#/	con-	.	4a/	con-	.	4ee\	con-	.
=10	=10	=10	=10	=10	=10	=10	=10	=10	=10	=10	=10
*	*^	*	*	*	*	*	*	*	*	*	*
2BB\ 2B	2dd/	4f#\	.	2B/	-tem-	.	(4f#/	-tem-	.	2dd\	-tem-	.
.	.	4g#X\	.	.	.	.	4g#X/)	.	.	.	.	.
2AA\ 2A	2cc#/	2a\	.	2A/	-ple à	.	2a/	-ple à	.	2cc#\	-ple à	.
=11	=11	=11	=11	=11	=11	=11	=11	=11	=11	=11	=11	=11
!	!	!	!	!	!	!LO:HP:a	!	!	!LO:HP:a	!	!	!LO:HP:a
2EE/ 2E	4b/	2gn\	<	4e/	ge-	<	4gn/	ge-	<	4b\	ge-	<
.	4cc#/	.	.	4e/	-noux	.	4g/	-noux	.	4cc#\	-noux	.
4FF#/ 4F#	4dd/	4a\	.	4f#/	ta	.	4a/	ta	.	4dd\	ta	.
4GG/ 4G	4ee/	4b\	[[	4g/	gran-	[[	4b/	gran-	[[	4ee\	gran-	[[
*	*v	*v	*	*	*	*	*	*	*	*	*	*
!!LO:PB:g=original	!	!	!	!	!	!	!	!	!	!	!
=12	=12	=12	=12	=12	=12	=12	=12	=12	=12	=12	=12
2AA^\ 2A	2f#/ 2a 2dd	.	(2f#/	-deur	.	1a	-deur	.	(2dd\	-deur	.
2AA^\ 2A	2e/ 2a 2cc#	.	2e/)	.	.	.	.	.	2cc#\)	.	.
=13	=13	=13	=13	=13	=13	=13	=13	=13	=13	=13	=13
!	!	!	!	!	!LO:DY:a	!	!	!LO:DY:a	!	!	!LO:DY:a
4r	2a\ 2ff#	f	2d/	Ma	f	2a/	Ma	f	2ff#\	Ma	f
4DD/ 4D	.	.	.	.	.	.	.	.	.	.	.
4FF#/ 4F#	2a\ 2ff#	.	4d/	voix	.	4a/	voix	.	4ff#\	voix	.
4DD/ 4D	.	.	4d/	s'é-	.	4a/	s'é-	.	4ff#\	s'é-	.
=14	=14	=14	=14	=14	=14	=14	=14	=14	=14	=14	=14
!	!	!LO:HP:a:t=cres.	!	!	!LO:HP:a:t=cres.	!	!	!LO:HP:a:t=cres.	!	!	!LO:HP:a:t=cres.
4r	2a\ 2ee	<	2c#/	-teint	<	2a/	-teint	<	2ee\	-teint	<
4AA\ 4A	.	.	.	.	.	.	.	.	.	.	.
4C#\ 4c#	2a\ 2ee	.	2c#/	mon	.	2a/	mon	.	2ee\	mon	.
4AA\ 4A	.	.	.	.	.	.	.	.	.	.	.
=15	=15	=15	=15	=15	=15	=15	=15	=15	=15	=15	=15
2BB\ 2B	2a\ 2dd	.	4B/	a-	.	4a/	a-	.	4dd\	a-	.
.	.	.	4B/	-me	.	4a/	-me	.	4dd\	-me	.
4C#\ 4c#	4a\ 4ee	.	4c#/	a-	.	4a/	a-	.	4ee\	a-	.
4D\ 4d	4a\ 4ff#	.	4d/	-nean-	.	4a/	-nean-	.	4ff#\	-nean-	.
=16	=16	=16	=16	=16	=16	=16	=16	=16	=16	=16	=16
*	*^	*	*	*	*	*	*	*	*	*	*
2AA\ 2A	2cc#/ 2ee	4a\	.	4a/	-ti-	.	2cc#\	-ti-	.	2ee\	-ti-	.
.	.	4g\	.	4g/	.	.	.	.	.	.	.	.
2D\ 2A	2dd/	4f#\	.	2f#/	-e	.	2dd\	-e	.	2dd\	-e	.
.	.	4a\	.	.	.	.	.	.	.	.	.	.
*	*v	*v	*	*	*	*	*	*	*	*	*	*
=17	=17	=17	=17	=17	=17	=17	=17	=17	=17	=17	=17
!	!	!	!	!	!LO:DY:a	!	!	!LO:DY:a	!	!	!LO:DY:a
2D\ 2A	2f#/ 2a	p	2d/	n'a	p	2f#/	n'a	p	2a/	n'a	p
4D\ 4G	4g/ 4b	.	4g/	plus	.	4g/	plus	.	4b/	plus	.
4D\ 4E 4G 4A	4g/ 4cc#	.	4e/	d'e-	.	4g/	d'e-	.	4cc#/	d'e-	.
!!LO:LB:g=original	!	!	!	!	!	!	!	!	!	!	!
=18	=18	=18	=18	=18	=18	=18	=18	=18	=18	=18	=18
!	!	!	!	!	!LO:HP:a	!	!	!LO:HP:a	!	!	!LO:HP:a
2D\ 2A	2f#\ 2dd	<	2d/	-cho	<	2f#/	-cho	<	2dd\	-cho	<
2DD/ 2D	2a\ 2ff#	[[	2d/	pi-	[[	2a/	pi-	[[	2ff#\	pi-	[[
=19	=19	=19	=19	=19	=19	=19	=19	=19	=19	=19	=19
!	!	!	!	!	!LO:HP:a	!	!	!LO:DY:a	!	!	!LO:HP:a
!	!	!	!	!	!LO:DY:a	!	!	!LO:HP:a	!	!	!LO:DY:a
4AAA/ 4AA	4a\ 4gg	f >	4B/	-tié	f >	4a/	-tié	f >	4gg\	-tié	f >
4AA\ 4A	4a\ 4ee	.	4d/	pour	.	4a/	pour	.	4ee\	pour	.
4AA\ 4A	4a\ 4cc#	.	4e/	moi	.	4a/	moi	.	4cc#\	moi	.
4AA\ 4A	4a\ 4ee	]]	4d/	Sei-	]]	4a/	Sei-	]]	4ee\	Sei-	]]
=20	=20	=20	=20	=20	=20	=20	=20	=20	=20	=20	=20
1DD 1D	2g\ 2a 2cc# 2ee	<	1d	-gneur	.	(2g/	-gneur	.	(2ee\	-gneur	.
.	2f#/ 2a 2dd	[ > ]]	.	.	.	2f#/)	.	.	2dd\)	.	.
=21	=21	=21	=21	=21	=21	=21	=21	=21	=21	=21	=21
2D\ 2d	2f#/ 2a	f	1r	.	.	1r	.	.	1r	.	.
4D\ 4d	4e#X/ 4g#X 4b	.	.	.	.	.	.	.	.	.	.
4D\ 4d	4en/ 4gn 4cc#	.	.	.	.	.	.	.	.	.	.
=22	=22	=22	=22	=22	=22	=22	=22	=22	=22	=22	=22
*	*^	*	*	*	*	*	*	*	*	*	*
4D\ 4d	2dd/ 2f#/	2ryy	.	1r	.	.	1r	.	.	1r	.	.
4C#\ 4c#	.	.	.	.	.	.	.	.	.	.	.	.
4BB\ 4B	4dd/	2f#^>\ 2ff#	.	.	.	.	.	.	.	.	.	.
4AA\ 4A	4cc#/	.	.	.	.	.	.	.	.	.	.	.
=23	=23	=23	=23	=23	=23	=23	=23	=23	=23	=23	=23	=23
2GG\ 2G	4gg/	2b\	>	1r	.	.	1r	.	.	1r	.	.
.	4ee/	.	.	.	.	.	.	.	.	.	.	.
4AA\ 4A	4cc#/ 4e	4ryy	.	.	.	.	.	.	.	.	.	.
4AA\ 4A	4ee/ 4g	4ryy	]]	.	.	.	.	.	.	.	.	.
=24	=24	=24	=24	=24	=24	=24	=24	=24	=24	=24	=24	=24
2DD^>/ 2D	4aa/	2a\ 2cc# 2ee	sf	1r	.	.	1r	.	.	1r	.	.
.	4gg/	.	.	.	.	.	.	.	.	.	.	.
2DD/ 2D	2gg\	2a\ 2dd	.	.	.	.	.	.	.	.	.	.
!!LO:LB:g=original	!	!	!	!	!	!	!	!	!	!	!	!
*	*v	*v	*	*	*	*	*	*	*	*	*	*
=25	=25	=25	=25	=25	=25	=25	=25	=25	=25	=25	=25
!	!	!	!	!	!	!	!	!	!LO:TX:a:t=2e. STROPHE.	!	!
2D\ 2A	2f#/ 2a	p	2d/	Com-	.	2f#/	Com-	.	2a/	Com-	.
!	!	!	!	!	!	!	!	!	!	!	!LO:HP:a
4D\ 4G	4g/ 4b	.	4g/	-ment	.	4g/	-ment	.	4b\	-ment	<
4D\ 4E 4A	4g/ 4cc#	.	4e/	o-	.	4g/	o-	.	4cc#\	o-	.
=26	=26	=26	=26	=26	=26	=26	=26	=26	=26	=26	=26
*	*^	*	*	*	*	*	*	*	*	*	*
4r	2dd/ 2f#	2ryy	.	2d/	-sér	.	2f#/	-sér	.	2dd\	-sér	.
4D\	.	.	.	.	.	.	.	.	.	.	.	.
4F#\	2dd/	4a\	.	2f#/	im-	.	2a/	im-	.	2dd\	im-	[
4D\	.	4f#\	.	.	.	.	.	.	.	.	.	.
=27	=27	=27	=27	=27	=27	=27	=27	=27	=27	=27	=27	=27
*^	*	*	*	*	*	*	*	*	*	*	*	*
4A\ 4G	4ryy	4cc#/	1a	<	4g/	-plo-	.	4a/	-plo-	.	4cc#\	-plo-	.
4A\ 4F#	4ryy	4dd/	.	.	4f#/	-rér	.	4a/	-rér	.	4dd\	-rér	.
2A/	4E\	4ee/	.	.	4e/	ta	.	4a/	ta	.	4ee\	ta	.
.	4D\	4ff#/	.	[[	4d/	clé-	.	4a/	clé-	.	4ff#\	clé-	.
*v	*v	*	*	*	*	*	*	*	*	*	*	*	*
=28	=28	=28	=28	=28	=28	=28	=28	=28	=28	=28	=28	=28
2AA\ 2A	2ee/	4a\	.	2c#^>/	-men-	.	4a/	-men-	.	2ee\	-men-	.
.	.	4g\	.	.	.	.	4g/	.	.	.	.	.
2D\	2dd/ 2f#	2ryy	.	2d/	-ce	.	2f#/	-ce	.	2dd\	-ce	.
*	*v	*v	*	*	*	*	*	*	*	*	*	*
=29	=29	=29	=29	=29	=29	=29	=29	=29	=29	=29	=29
2D\ 2A	2a\ 2ff#	sf	2d^>/	te	.	2a^>/	te	.	2ff#^>\	te	.
4C#\ 4A	4a\ 4ee	.	4c#/	re-	.	4a/	re-	.	4ee\	re-	.
4C#\ 4A	4a\ 4ee	.	4c#/	-gar-	.	4a/	-gar-	.	4ee\	-gar-	.
!!LO:PB:g=original	!	!	!	!	!	!	!	!	!	!	!	!
=30	=30	=30	=30	=30	=30	=30	=30	=30	=30	=30	=30
*	*^	*	*	*	*	*	*	*	*	*	*
2BB\ 2B	2dd/	4f#\	.	2B/	-der	.	(<4f#/	-der	.	2dd\	-der	.
.	.	4g#X\	.	.	.	.	4g#X/)	.	.	.	.	.
2AA\ 2A	2cc#/	4a\	.	2A/	en	.	2a/	en	.	2cc#\	en	.
.	.	4gn\	.	.	.	.	.	.	.	.	.	.
=31	=31	=31	=31	=31	=31	=31	=31	=31	=31	=31	=31	=31
!	!	!	!	!	!	!LO:HP:a	!	!	!LO:HP:a	!	!	!LO:HP:a
2EE/ 2E	4b/	2g\	.	4e/	mon	<	4gn/	mon	<	4b\	mon	<
.	4cc#/	.	.	4e/	i-	.	4g/	i-	.	4cc#\	i-	.
4FF#/ 4F#	4dd/	4a\	.	4f#/	-ni-	.	4a/	-ni-	.	4dd\	-ni-	.
4GG/ 4G	4ee/	4b\	.	4g/	-qui-	[[	4b/	-qui-	[[	4ee\	-qui-	[[
=32	=32	=32	=32	=32	=32	=32	=32	=32	=32	=32	=32	=32
*	*	*^	*	*	*	*	*	*	*	*	*	*
!	!	!	!	!	!	!	!LO:HP:a	!	!	!LO:HP:a	!	!	!LO:HP:a
1AA 1A	2dd/	2f#\	1a	.	(2f#/	-té	>	1a	-té	>]	(2dd\	-té.	>
.	2cc#/	2e\	.	.	2e/)	.	]]	.	.	.	2cc#\)	.	]]
*	*v	*v	*v	*	*	*	*	*	*	*	*	*	*
=33	=33	=33	=33	=33	=33	=33	=33	=33	=33	=33	=33
!	!	!	!	!	!	!	!	!	!	!	!LO:DY:a
2DD/ 2D	4a\ 4ff#	.	2d/	J'ai	.	2a/	J'ai	.	2ff#\	J'ai	f
.	8f#\L 8dd	.	.	.	.	.	.	.	.	.	.
.	8g\J 8ee	.	.	.	.	.	.	.	.	.	.
2D\ 2d	4a\ 4ff#	.	4d/	de-	.	4a/	de-	.	4ff#\	de-	.
.	4f#/ 4dd	.	4d/	-chi-	.	4a/	-chi-	.	4ff#\	-chi-	.
=34	=34	=34	=34	=34	=34	=34	=34	=34	=34	=34	=34
4c#\	2a\ 2ee	.	2c#/	-ré	.	2a/	-ré	.	2ee\	-ré	.
8AA/L	.	.	.	.	.	.	.	.	.	.	.
8BB/J	.	.	.	.	.	.	.	.	.	.	.
4C#/	2a\ 2ee	.	2c#/	ma	.	2a/	ma	.	2ee\	ma	.
4AA/	.	.	.	.	.	.	.	.	.	.	.
!!LO:LB:g=original	!	!	!	!	!	!	!	!	!	!	!
=35	=35	=35	=35	=35	=35	=35	=35	=35	=35	=35	=35
*	*^	*	*	*	*	*	*	*	*	*	*
2BB\ 2B	4dd/	2a\	<	4B/	ro-	.	4a/	ro-	.	4dd\	ro-	.
.	4dd/	.	.	4B/	-be	.	4a/	-be	.	4dd\	-be	.
4C#\ 4c#	4ee/	2a\	.	4c#/	d'in-	.	4a/	d'in-	.	4ee\	d'i-	.
4D\ 4d	4ff#/	.	[	4d/	-no-	.	4a/	-no-	.	4ff#\	-no-	.
=36	=36	=36	=36	=36	=36	=36	=36	=36	=36	=36	=36	=36
2A\ 2c#	2ee/	4a\	>	(4a/	-cen-	.	2cc#\	-cen-	.	2ee\	-cen-	.
.	.	4g\	.	4g/)	.	.	.	.	.	.	.	.
2D\ 2d	2dd/	2f#\	]	2f#/	-ce	.	2dd\	-ce	.	2dd\	-ce	.
*	*v	*v	*	*	*	*	*	*	*	*	*	*
=37	=37	=37	=37	=37	=37	=37	=37	=37	=37	=37	=37
!	!	!	!	!	!LO:DY:a	!	!	!LO:DY:a	!	!	!LO:DY:a
2D\ 2A	2f#/ 2a	p	2d/	Bri-	p	2f#/	Bri-	p	2a\	Bri-	p
!	!	!	!	!	!LO:HP:a	!	!	!LO:HP:a	!	!	!LO:HP:a
4D\ 4G	4f#/ 4b	.	4g/	-sé	<	4g/	-sé	<	4b\	-sé	<
4D\ 4E 4A	4g/ 4cc#	.	4e/	le	.	4g/	le	.	4cc#\	le	.
=38	=38	=38	=38	=38	=38	=38	=38	=38	=38	=38	=38
2D\ 2A	2f#/ 2dd	<	2d/	sceau	.	2f#/	sceau	.	2dd\	sceau	.
2DD/ 2D	2a\ 2ff#	[[	2a/	de	[	2dd\	de	[	2ff#\	de	[
=39	=39	=39	=39	=39	=39	=39	=39	=39	=39	=39	=39
!	!	!	!	!	!LO:DY:a	!	!	!LO:DY:a	!	!	!LO:DY:a
4GGG/ 4GG	4b\ 4gg	f	4e/	ma	f	4b\	ma	f	4gg\	ma	f
4GG/ 4G	4b\ 4ee	.	4g/	fi-	.	4b\	fi-	.	4ee\	fi-	.
4AA/ 4A	4a\ 4cc#	.	4a/	-de-	.	4a\	-de-	.	4cc#\	-de-	.
4AA/ 4A	4g\ 4ee	.	4g/	-li	.	4cc#\	-li	.	4ee\	-li-	.
!!LO:LB:g=original	!	!	!	!	!	!	!	!	!	!	!
=40	=40	=40	=40	=40	=40	=40	=40	=40	=40	=40	=40
1DD; 1D	1f#;< 1dd	.	1f#;	-té.	.	1dd;	-té.	.	1dd;	-té.	.
=41||	=41||	=41||	=41||	=41||	=41||	=41||	=41||	=41||	=41||	=41||	=41||
2D\ 2d	2f#/ 2a	.	1r	.	.	1r	.	.	1r	.	.
4D\ 4d	4f#/ 4a 4ff#	.	.	.	.	.	.	.	.	.	.
4C#\ 4c#	4e/ 4a 4ee	.	.	.	.	.	.	.	.	.	.
=42	=42	=42	=42	=42	=42	=42	=42	=42	=42	=42	=42
*	*^	*	*	*	*	*	*	*	*	*	*
2BB\ 2B	2dd/	4f#\	.	1r	.	.	1r	.	.	1r	.	.
.	.	4g#X\	.	.	.	.	.	.	.	.	.	.
4AA\ 4A	2cc#/	2a\	.	.	.	.	.	.	.	.	.	.
4GGn\ 4Gn	.	.	.	.	.	.	.	.	.	.	.	.
=43	=43	=43	=43	=43	=43	=43	=43	=43	=43	=43	=43	=43
2FF#/ 2F#	(4dd/	2a\	.	1r	.	.	1r	.	.	1r	.	.
.	4cc#/	.	.	.	.	.	.	.	.	.	.	.
4GG/ 4G	4b/	4e\	.	.	.	.	.	.	.	.	.	.
4EE/ 4E	4ee/)	4g\	.	.	.	.	.	.	.	.	.	.
=44	=44	=44	=44	=44	=44	=44	=44	=44	=44	=44	=44	=44
4.AA/ 4.A	4.a/ 4.cc#	4.g\	.	1r	.	.	1r	.	.	1r	.	.
8DD/ 8D	8dd/	8f#\	>	.	.	.	.	.	.	.	.	.
2DD/ 2D	2dd/ 2f#	2fryy	]	.	.	.	.	.	.	.	.	.
*	*v	*v	*	*	*	*	*	*	*	*	*	*
!!LO:PB:g=original	!	!	!	!	!	!	!	!	!	!	!
=45	=45	=45	=45	=45	=45	=45	=45	=45	=45	=45	=45
!	!	!	!	!	!LO:DY:a	!	!	!LO:DY:a	!LO:TX:a:t=3e. STROPHE.	!	!LO:DY:a
2D\ 2A	2f#/ 2a	p	2d/	L'an-	p	2f#/	L'an-	p	2a/	L'an-	p
4D\ 4G	4g/ 4b	.	4d/	-ge	.	4g/	-ge	.	4b\	-ge	.
4D\ 4E 4A	4g/ 4cc#	.	4d/	gar-	.	4e/	gar-	.	4cc#\	gar-	.
=46	=46	=46	=46	=46	=46	=46	=46	=46	=46	=46	=46
2D\ 2A	4dd\	.	2d/	-dien	.	2f#/	-dien	.	2dd\	-dien	.
.	4f#/	.	.	.	.	.	.	.	.	.	.
4F#\	4a/	.	2d/	de	.	2f#/	de	.	2dd\	de	.
4D\	4dd\	.	.	.	.	.	.	.	.	.	.
=47	=47	=47	=47	=47	=47	=47	=47	=47	=47	=47	=47
*	*^	*	*	*	*	*	*	*	*	*	*
!	!	!	!	!	!	!LO:HP:a:t=cres.	!	!	!LO:HP:a:t=cres.	!	!	!LO:HP:a:t=cres.
4G\ 4A	4cc#/	1a	.	4g/	la	<	4a/	la	<	4cc#\	la	<
4F#\ 4A	4dd/	.	.	4f#/	porte	.	4a/	porte	.	4dd\	porte	.
4E\ 4A	4ee/	.	.	4e/	-é	.	4a/	-é	.	4ee\	-é	.
4D\ 4A	4ff#/	.	.	4d/	-ter-	.	4a/	-ter-	.	4ff#\	-ter-	.
=48	=48	=48	=48	=48	=48	=48	=48	=48	=48	=48	=48	=48
2C#\ 2A	2ee/	4a\	.	2c#/	-nel-	.	4a/	-nel-	.	2ee\	-nel-	.
.	.	4g\	.	.	.	.	4g/	.	.	.	.	.
4D\ 4A	4dd/	2f#\	.	2d/	-le	.	2f#/	-le	.	2dd\	-le	.
4r	8a/L	.	.	.	.	.	.	.	.	.	.	.
.	8dd/J	.	.	.	.	.	.	.	.	.	.	.
*	*v	*v	*	*	*	*	*	*	*	*	*	*
=49	=49	=49	=49	=49	=49	=49	=49	=49	=49	=49	=49
4DD/	2a\ 2ff#	.	2d^>/	M'en	.	2a^>/	M'en	.	2ff#^>\	M'en	.
4D\	.	.	.	.	.	.	.	.	.	.	.
4C#/	2a\ 2ee	.	4c#/	fer-	.	4a/	fer-	.	4ee\	fer-	.
4CC#/	.	.	4c#/	-me-	.	4a/	-me-	.	4ee\	-me-	.
=50	=50	=50	=50	=50	=50	=50	=50	=50	=50	=50	=50
*	*^	*	*	*	*	*	*	*	*	*	*
4BBB/	2dd\ 2b	2ryy	.	2B/	-ra	.	2b/	-ra	.	2dd\	-ra	.
4BB/	.	.	.	.	.	.	.	.	.	.	.	.
4AA/	2cc#/	4f#\	.	2f#/	l'en	.	2a/	l'en	.	2cc#\	l'en	.
4FF#/	.	4a\	.	.	.	.	.	.	.	.	.	.
!!LO:LB:g=original	!	!	!	!	!	!	!	!	!	!	!	!
=51	=51	=51	=51	=51	=51	=51	=51	=51	=51	=51	=51	=51
!	!	!	!	!	!	!	!	!	!	!	!	!
!	!	!	!	!	!	!LO:HP:b	!	!	!LO:HP:b	!	!	!LO:HP:a
!	!	!	!	!	!	!	!	!	!	!	!	!
4GG/	4b/	2g\	.	4g/	trée	>	4g/	trée	>	4b\	trée	<
4EE\ 4E	4cc#/	.	.	4e/	en	.	4g/	en	.	4cc#\	en	.
4FF#\ 4F#	4dd\ 4a	4ryy	.	4f#/	ton	.	4a/	ton	.	4dd\	ton	.
4GG\ 4G	4ee\ 4b	4ryy	.	4g/	saint	]]	4b/	saint	]]	4ee\	saint	[[
=52	=52	=52	=52	=52	=52	=52	=52	=52	=52	=52	=52	=52
!	!	!	!	!	!	!LO:HP:a	!	!	!	!	!	!LO:HP:a
4AA/	2dd/	2f#\	.	2f#/	nom	>	1a	nom	.	(2dd\	nom	>
2A\	.	.	.	.	.	.	.	.	.	.	.	.
.	2cc#/	2e\	.	2e/	.	]]	.	.	.	2cc#\)	.	]]
4AA/	.	.	.	.	.	.	.	.	.	.	.	.
*	*v	*v	*	*	*	*	*	*	*	*	*	*
=53	=53	=53	=53	=53	=53	=53	=53	=53	=53	=53	=53
4r	2a\ 2ff#	f	2d^>/	Que	.	2a^/	Que	.	2ff#^>\	Que	.
4DD/ 4D	.	.	.	.	.	.	.	.	.	.	.
4FF#/ 4F#	2a\ 2ff#	.	4d/	dis-	.	4a/	dis -	.	4ff#\	dis-	.
4DD/ 4D	.	.	4d/	-je hé-	.	4a/	-je hé-	.	4ff#\	-je hé-	.
=54	=54	=54	=54	=54	=54	=54	=54	=54	=54	=54	=54
!	!	!	!	!	!LO:HP:a:t=cres.	!	!	!LO:HP:a:t=cres.	!	!	!LO:HP:a:t=cres.
4r	2a\ 2ee	.	2c#/	-las	<	2a/	-las	<	2ee\	-las	<
4AA\ 4A	.	.	.	.	.	.	.	.	.	.	.
4C#\ 4c#	2a\ 2ee	.	2c#/	ta	.	2a/	ta	.	2ee\	ta	.
4AA\ 4A	.	.	.	.	.	.	.	.	.	.	.
=55	=55	=55	=55	=55	=55	=55	=55	=55	=55	=55	=55
*	*^	*	*	*	*	*	*	*	*	*	*
2BB\ 2B	2dd\ 2a	2ryy	.	4B/	bon-	.	4a/	bon-	.	4dd\	bon-	.
.	.	.	.	4B/	-té	.	4a/	-té	.	4dd\	-té	.
4C#\ 4c#	4ee/	2a\	.	4c#/	pa-	.	4a/	pa-	.	4ee\	pa-	.
4D\ 4d	4ff#/	.	.	4d/	-ter-	.	4a/	-ter-	.	4ff#\	-ter-	.
!!LO:LB:g=original	!	!	!	!	!	!	!	!	!	!	!	!
=56	=56	=56	=56	=56	=56	=56	=56	=56	=56	=56	=56	=56
!	!	!	!	!	!	!LO:HP:a	!	!	!LO:HP:a	!	!	!LO:HP:a
2A\ 2c#	2ee/	4a\	.	4a/	-nel-	>	2cc#\	-nel-	>	2ee\	-nel-	>
.	.	4g\	.	4g/	.	.	.	.	.	.	.	.
2D\ 2d	2dd\ 2f#	2ryy	.	2f#/	-le	]	2dd\	-le	]	2dd\	-le	]
*	*v	*v	*	*	*	*	*	*	*	*	*	*
=57	=57	=57	=57	=57	=57	=57	=57	=57	=57	=57	=57
!	!	!	!	!	!	!	!	!	!	!	!LO:DY:a
2D\ 2A	2f#/ 2a	.	2d/	N'est	f	2f#/	N'est	f	2a/	N'est	f
4D\ 4G	4g/ 4b	.	4g/	el-	.	4g/	el-	.	4b\	el-	.
4D\ 4E 4A	4g/ 4cc#	.	4e/	-le	.	4g/	-le	.	4cc#\	-le	.
=58	=58	=58	=58	=58	=58	=58	=58	=58	=58	=58	=58
!	!	!	!	!	!LO:HP:a:t=cres.	!	!	!LO:HP:a:t=cres.	!	!	!LO:HP:a:t=cres.
2D\ 2A	2f#\ 2dd	.	2d/	pas	<	2f#/	pas	<	2dd\	pas	<
2D\ 2A	2a\ 2ff#	.	2d/	un	.	2a/	un	.	2ff#\	un	.
=59	=59	=59	=59	=59	=59	=59	=59	=59	=59	=59	=59
4AA\ 4A	4a\ 4cc# 4gg	f	4A/	ga-	.	4cc#\	ga-	.	4gg\	ga-	.
!	!LO:TX:B:b:t=elargissant.	!	!	!	!	!	!	!	!	!	!
4AA\ 4A	4a\ 4cc# 4ee	.	4c#/	-ge	.	4a/	-ge	.	4ee\	-ge	.
!	!	!	!	!	!	!	!	!	!LO:TX:B:a:t=élargissant.	!	!
4AA\ 4A	4a\ 4cc#	.	4e/	de	.	4a/	de	.	4cc#\	de	.
4AA\ 4A	4g\ 4cc# 4ee	.	4c#/	par-	.	4g/	par-	.	4ee\	par-	.
=60	=60	=60	=60	=60	=60	=60	=60	=60	=60	=60	=60
1DD; 1AA 1D	1f#;< 1dd 1ff#	.	1d;	-don	.	1f#;	-don	.	1dd;	-don	.
==	==	==	==	==	==	==	==	==	==	==	==
*-	*-	*-	*-	*-	*-	*-	*-	*-	*-	*-	*-
!!!system-decoration: [(s1,s2,s3)]{(s4,s5)}
!!!RDF**kern: > = above
!!!RDF**kern: < = below
!!!ENC: Andrzej Gręziak
!!!END: 2022-08-10
!!!ENC: Natalia Wrzos
!!!END: 2022-09-16
!!!YEC: Copyright 2022 Narodowy Instytut Fryderyka Chopina (https://polishscores.org)
!!!YEM: License CC-BY-4.0 (https://creativecommons.org/licenses/by/4.0)
